icons/lines/bluetooth-rectangle.svg

<svg xmlns="http://www.w3.org/2000/svg" width="24" height="24" viewBox="0 0 24 24" fill="none" stroke="currentColor" stroke-width="2" stroke-linecap="round" stroke-linejoin="round" >
  <path d="M8.58984 15.56L15.2098 9.49002C15.4898 9.24002 15.4798 8.84004 15.1898 8.60004L13.1299 6.88004C12.5899 6.43004 12.1599 6.64003 12.1599 7.34003V16.67C12.1599 17.37 12.5999 17.57 13.1299 17.13L15.1898 15.41C15.4798 15.17 15.4898 14.77 15.2098 14.52L8.58984 8.45005" stroke-miterlimit="10"/>
  <path d="M15 22H9C6 22 4 20 4 17V7C4 4 6 2 9 2H15C18 2 20 4 20 7V17C20 20 18 22 15 22Z" stroke-miterlimit="10"/>
  </svg>

<svg xmlns="http://www.w3.org/2000/svg" width="24" height="24" viewBox="0 0 24 24" fill="none" stroke="currentColor" stroke-width="2" stroke-linecap="round" stroke-linejoin="round">
  <path d="m8.59 15.56 6.62-6.07a.57.57 0 0 0-.02-.89l-2.06-1.72c-.54-.45-.97-.24-.97.46v9.33c0 .7.44.9.97.46l2.06-1.72a.57.57 0 0 0 .02-.89L8.59 8.45" />
  <path d="M9 22c-3 0-5-2-5-5V7c0-3 2-5 5-5h6c3 0 5 2 5 5v10c0 3-2 5-5 5z" />
</svg>
